public/img/svgs/icons/star.svg

<svg width="24" height="24" viewBox="0 0 24 24" fill="none" xmlns="http://www.w3.org/2000/svg">
<path d="M11.7347 5.5029C11.8472 5.28956 12.1528 5.28956 12.2653 5.5029L14.0707 8.92471C14.1141 9.00699 14.1932 9.06447 14.2849 9.08033L18.0971 9.73994C18.3348 9.78106 18.4292 10.0717 18.2611 10.2446L15.5647 13.019C15.4998 13.0857 15.4696 13.1788 15.4828 13.2708L16.0336 17.1003C16.0679 17.3391 15.8207 17.5187 15.6042 17.4122L12.1324 15.7051C12.0489 15.664 11.9511 15.664 11.8676 15.7051L8.39576 17.4122C8.1793 17.5187 7.93211 17.3391 7.96644 17.1003L8.51716 13.2708C8.5304 13.1788 8.50018 13.0857 8.43534 13.019L5.7389 10.2446C5.57078 10.0717 5.6652 9.78106 5.90289 9.73994L9.71511 9.08033C9.80677 9.06447 9.88589 9.00699 9.9293 8.92471L11.7347 5.5029Z" fill="#2B2F51"/>
</svg>

<svg width="24" height="24" fill="none" xmlns="http://www.w3.org/2000/svg"><path d="M11.735 5.503a.3.3 0 01.53 0l1.806 3.422a.3.3 0 00.214.155l3.812.66a.3.3 0 01.164.505l-2.696 2.774a.3.3 0 00-.082.252l.55 3.83a.3.3 0 01-.429.311l-3.472-1.707a.3.3 0 00-.264 0l-3.472 1.707a.3.3 0 01-.43-.312l.551-3.83a.3.3 0 00-.082-.251L5.74 10.245a.3.3 0 01.164-.505l3.812-.66a.3.3 0 00.214-.155l1.806-3.422z" fill="#2B2F51"/></svg>
